X:1
T:Nei campi e nelle selve
T:Nei campi e nelle selve
T:(Erste Komposition) Coro
T:Ludvig van Beethoven
C:Ludvig van Beethoven
%%score [ 1 2 3 4 ]
L:1/8
Q:1/4=70
M:2/4
K:C
V:1 treble nm="Soprano" snm="S."
V:2 treble nm="Alto" snm="A."
V:3 treble-8 nm="Tenor" snm="T."
V:4 bass nm="Bass" snm="B."
V:1
"^Allegro" e | f d e c | d c2 c | B c d e | e d z d | d d d d | e2 f2- | f e/ d/ c B | d c f2- | %9
w: Nei|cam- pi~e nel- le|sel- ve se-|gui- vo già le|bel- ve, pas-|ce- vo~il greg- ge~an-|cor li-|* be- ro pa- sto-|rel- lo, li-|
 f e/ d/ c B | c4!fine! || e4 | d2 d2 | c2 c2 | c2 B2 | d4 | e3 ^f/g/ | G2 B>A | G3 B | B2 B2 | %20
w: * be- ro cac- cia-|tor.|O-|ra non|son più|quel- lo:|Per-|dei la *|li- ber- *|tà. E|quel ch`è|
 c3 d/_e/ | _e2 d2 | d2 d2 | _e4 | f3 _e | _e2 d2 | d2 d2 | _e2 fg/_a/ | _e2 d2 | f2 _e2 | _d4 | %31
w: peg- gio~oh *|Di- o!|Co- me|se~il|mio tor-|men- to|col- pa|non si- * *|a di|le- i,|mo-|
 c3 c | ge c_B | _B2 _A2 | (f3 _e) | d2 d2 | d2 _ec | B3 G | _e4- | e2 _e2 | d2 c2 | c2 B2 | g4- | %43
w: stra- re~al|mio * la- *|men- to|Clo- *|ri non|vuol pie- *|tà, mo-|stra-|* re~al|mio la-|men- to|Clo-|
 g2 f _e | d2 c2 | !fermata!g4!D.C.! |] %46
w: * ri non|vuol pie-|tà.|
V:2
 G | F G G E | F E2 E | D E G G | G G z G | G G G G | G2 A2- | A G/ F/ E D | F E A2- | %9
w: Nei|cam- pi~e nel- le|sel- ve se-|gui- vo già le|bel- ve, pas-|ce- vo~il greg- ge~an-|cor li-|* be- ro pa- sto-|re- lo, li-|
 A G/ F/ E D | E4 || G4 | G2 G2 | A2 A2 | A2 G2 | G4 | G3 G | G2 ^F2 | G3 G | G2 G2 | G3 B/c/ | %21
w: * be- ro cac- cia-|tor.|O-|ra non|son più|quel- lo:|Per-|dei la|li- ber-|tà. E|quel ch`è|peg- gio~oh *|
 c2 B2 | G2 G2 | G4 | _A3 G | G2 F2 | F2 F2 | G2 _A_B/c/ | G2 F2 | _A2 G2 | G4 | G3 G | G2 G2 | %33
w: Di- o!|Co- me|se~il|mio tor-|men- to|col- pa|non si- * *|a di|le- i,|mo-|stra- re~al|mio la-|
 G2 F2 | (_A3 G) | F2 F2 | ^F2 F2 | G3 G | G4- | G2 G2 | F2 _E2 | _E2 D2 | z2 C2- | C2 D _E | %44
w: men- to|Clo- *|ri non|vuol pie-|tà, mo-|stra-|* re~al|mio la-|men- to|Clo-|* ri non|
 F2 ^F2 | !fermata!G4 |] %46
w: vuol pie-|tà.|
V:3
 c | c d c c | B c2 G | G G G c | c B z B | B B B B | c2 c2- | c c/ c/ g g | g g c2- | %9
w: Nei|cam- pi~e nel- le|sel- ve se-|gui- vo già le|bel- ve, pas-|ce- vo~il greg- ge~an-|cor li-|* be- ro pa- sto-|re- lo, li-|
 c c/ c/ g G | G4 || c4 | d2 d2 | d2 d2 | d2 d2 | f4 | e3 e | B2 c2 | B3 d | d2 d2 | _e3 d/c/ | %21
w: * be- ro cac- cia-|tor.|O-|ra non|son più|quel- lo|Per-|dei la|li- ber-|tà. E|quel ch`è|peg- gio~oh *|
 g2 G2 | B2 B2 | c4 | c3 c | _B2 B2 | _B2 B2 | _B2 cB/_A/ | _B2 B2 | _B2 B2 | _B4 | _B3 B | c2 c2 | %33
w: Di- o!|Co- me|se~il|mio tor-|men- to|col- pa|non si- * *|a di|le- i,|mo-|stra- re~al|mio la-|
 c2 c2 | c4 | c2 c2 | c2 c2 | d3 G | G4- | G2 G2 | G2 G2 | G2 G2 | z2 c2- | c2 c c | c2 c2 | %45
w: men- to|Clo-|ri non|vuol pie-|tà, mo-|stra-|* re~al|mio la-|men- to|Clo-|* ri non|vuol pie-|
 !fermata!B4 |] %46
w: tà.|
V:4
 C | A, B, C C, | G, C,2 E, | F, E, B,, C, | G, G,, z G, | G, G, G, G, | C,2 F,2- | %7
w: Nei|cam- pi~e nel- le|sel- ve se-|gui- vo già le|bel- ve, pas-|ce- vo~il greg- ge~an-|cor li-|
 F, F,/ F,/ G, G, | C C, F,2- | F, F,/ F,/ G, G, | C,4 || C4 | B,2 B,2 | ^F,2 F,2 | ^F,2 G,2 | %15
w: * be- ro pa- sto-|re- lo, li-|* be- ro cac- cia-|tor.|O-|ra non|son più|quel- lo|
 B,4 | C3 C, | D,2 D,2 | G,3 G, | G,2 G,2 | G,3 G, | G,2 G,2 | G,2 G,2 | C,4 | _A,3 =A, | %25
w: Per-|dei la|li- ber-|tà. E|quel ch`è|peg- gio~oh|Di- o!|Co- me|se~il|mio tor-|
 _B,2 _B,,2 | _A,2 A,2 | G,2 F,2 | _B,2 _B,,2 | _E,2 E,2 | _E,4 | E,3 E, | E,2 E,2 | F,2 F,2 | %34
w: men- to|col- pa|non si-|a di|le- i,|mo-|stra- re~al|mio la-|men- to|
 (F,3 G,) | _A,2 A,2 | _A,2 A,2 | G,3 G, | C,4- | C,2 C,2 | B,,2 C,2 | G,2 G,,2 | z2 (_E,2 | %43
w: Clo- *|ri non|vuol pie-|tà mo-|stra-|* re~al|mio la-|men- to|Clo-|
 _A,2) A, A, | _A,2 A,2 | !fermata!G,4 |] %46
w: * ri non|vuol pie-|tà.|

